src/actions/symbolic/review-symbolic.svg

<svg width="16px" height="16px" version="1.1" viewBox="0 0 16 16" xmlns="http://www.w3.org/2000/svg">
 <path d="m3 0c-1.662-1.1842e-15 -3 1.338-3 3v7c0 1.662 1.338 3 3 3h8l3 3v-3.1738c1.1666-0.41051 2-1.5157 2-2.8262v-7c0-1.662-1.338-3-3-3h-10zm0 1h10c1.108 0 2 0.892 2 2v7c0 1.108-0.892 2-2 2h-3-7c-1.108 0-2-0.892-2-2v-7c0-1.108 0.892-2 2-2zm1 3v1h8v-1h-8zm0 3v1h6v-1h-6z" fill="#363636" fill-rule="evenodd" stop-color="#000000" stroke-linecap="round" stroke-linejoin="round" stroke-width="2.3244" style="paint-order:stroke fill markers"/>
</svg>

<svg xmlns="http://www.w3.org/2000/svg" width="16" height="16">
    <path fill="#050505" fill-opacity=".7" fill-rule="evenodd" d="M3 0C1.338 0 0 1.338 0 3v7c0 1.662 1.338 3 3 3h8l3 3v-3.174A2.99 2.99 0 0 0 16 10V3c0-1.662-1.338-3-3-3H3zm0 1h10c1.108 0 2 .892 2 2v7c0 1.108-.892 2-2 2H3c-1.108 0-2-.892-2-2V3c0-1.108.892-2 2-2zm1 3v1h8V4H4zm0 3v1h6V7H4z" style="paint-order:stroke fill markers"/>
</svg>
